dist/svg/link-thin.svg

<svg width="16" height="16" viewBox="0 0 16 16" fill="rgb(34, 34, 34)" xmlns="http://www.w3.org/2000/svg"><title>link-thin</title><path d="M4.69999 12L3.99999 11.2L11.3 4L12 4.7L4.69999 12ZM13.9 2.1C13.2 1.4 12.3 1 11.3 1C10.3 1 9.49999 1.4 8.79999 2.1L6.99999 3.8V5.2L9.49999 2.7C9.99999 2.3 10.6 2 11.3 2C12 2 12.7 2.3 13.2 2.8C14.2 3.8 14.2 5.5 13.2 6.5L10.8 9H12.2L14 7.2C15.4 5.8 15.4 3.5 13.9 2.1ZM4.69999 14C3.99999 14 3.29999 13.7 2.79999 13.2C1.79999 12.2 1.79999 10.5 2.79999 9.5L5.19999 7H3.79999L2.09999 8.8C0.699988 10.2 0.699988 12.5 2.09999 14C2.79999 14.6 3.69999 15 4.69999 15C5.69999 15 6.59999 14.6 7.29999 13.9L8.99999 12.2V10.8L6.49999 13.3C5.99999 13.7 5.39999 14 4.69999 14Z" fill="rgb(34, 34, 34)" fill-opacity="1.00"/></svg>

<!-- Generated by Trend Micro Style Portal -->
<svg version="1.1" xmlns="http://www.w3.org/2000/svg" width="16" height="16" viewBox="0 0 16 16">
  <title>link-thin</title>
  <path fill="rgb(34,34,34)" d="M4.7 12l-0.7-0.8 7.3-7.2 0.7 0.7-7.3 7.3zM13.9 2.1v0c-0.7-0.7-1.6-1.1-2.6-1.1s-1.8 0.4-2.5 1.1l-1.8 1.7v1.4l2.5-2.5c0.5-0.4 1.1-0.7 1.8-0.7s1.4 0.3 1.9 0.8c1 1 1 2.7 0 3.7l-2.4 2.5h1.4l1.8-1.8c1.4-1.4 1.4-3.7-0.1-5.1zM4.7 14c-0.7 0-1.4-0.3-1.9-0.8-1-1-1-2.7 0-3.7l2.4-2.5h-1.4l-1.7 1.8c-1.4 1.4-1.4 3.7 0 5.2v0c0.7 0.6 1.6 1 2.6 1s1.9-0.4 2.6-1.1l1.7-1.7v-1.4l-2.5 2.5c-0.5 0.4-1.1 0.7-1.8 0.7z"></path>
</svg>
